X:205
T:Reel 205
M:4/4
K:Amaj
L:1/8
EAAG EDB,C|DB,B,2 G2FG|EAAG EFGE|DB,B,C DEFG|EAAG EDB,C|DB,B,2 G2FG|EAAG EFGE|DB,GB, B,A,A,2|EAAB c2BA|GABc d2ed|EAAB cABA|GEDB, B,A,A,2|EAAB c2BA|GABc d2cd|ecdB cABA|GEDB, B,A,A,2|
